receipt-text-send-outline.svg

<svg fill="currentColor" viewBox="0 0 24 24"><path d="M19.5 3.5 18 2l-1.5 1.5L15 2l-1.5 1.5L12 2l-1.5 1.5L9 2 7.5 3.5 6 2 4.5 3.5 3 2v20l1.5-1.5L6 22l1.5-1.5L9 22l1.5-1.5L12 22v-2.91H5V4.91h14v8.35l2 1V2zM14 23v-4l4-1-4-1v-4l10 5zm-2-12v2H6v-2zm-6 6v-2h6v2zM18 7v2H6V7z"/></svg>

<svg  viewBox="0 0 24 24" fill="currentColor"><path  d="M19.5 3.5L18 2L16.5 3.5L15 2L13.5 3.5L12 2L10.5 3.5L9 2L7.5 3.5L6 2L4.5 3.5L3 2V22L4.5 20.5L6 22L7.5 20.5L9 22L10.5 20.5L12 22V19.09H5V4.91H19V13.26L21 14.26V2L19.5 3.5M14 23V19L18 18L14 17V13L24 18L14 23M12 11V13H6V11H12M6 17V15H12V17H6M18 7V9H6V7H18Z"/></svg>
